envergo/static/images/simu.svg

<svg width="138" height="138" viewBox="0 0 138 138" fill="none" xmlns="http://www.w3.org/2000/svg">
<rect width="138" height="138" fill="white"/>
<path fill-rule="evenodd" clip-rule="evenodd" d="M34.5 13.8C33.5489 13.8 32.775 13.0262 32.775 12.075C32.775 11.1238 33.5489 10.35 34.5 10.35C35.4512 10.35 36.225 11.1238 36.225 12.075C36.225 13.0262 35.4512 13.8 34.5 13.8Z" fill="#CACAFB"/>
<path fill-rule="evenodd" clip-rule="evenodd" d="M13.8 127.65C12.8488 127.65 12.075 126.876 12.075 125.925C12.075 124.974 12.8488 124.2 13.8 124.2C14.7512 124.2 15.525 124.974 15.525 125.925C15.525 126.876 14.7512 127.65 13.8 127.65Z" fill="#CACAFB"/>
<path fill-rule="evenodd" clip-rule="evenodd" d="M124.2 41.4C123.249 41.4 122.475 40.6262 122.475 39.675C122.475 38.7238 123.249 37.95 124.2 37.95C125.151 37.95 125.925 38.7238 125.925 39.675C125.925 40.6262 125.151 41.4 124.2 41.4Z" fill="#CACAFB"/>
<path fill-rule="evenodd" clip-rule="evenodd" d="M78.4875 22.425C78.4875 21.4723 79.2598 20.7 80.2125 20.7H107.813C108.765 20.7 109.538 21.4723 109.538 22.425C109.538 23.3777 108.765 24.15 107.813 24.15H80.2125C79.2598 24.15 78.4875 23.3777 78.4875 22.425ZM115.575 25.875C116.528 25.875 117.3 26.6473 117.3 27.6V110.4C117.3 114.211 114.211 117.3 110.4 117.3L44.85 117.3C43.8973 117.3 43.125 116.528 43.125 115.575C43.125 114.622 43.8973 113.85 44.85 113.85L110.4 113.85C112.305 113.85 113.85 112.305 113.85 110.4V27.6C113.85 26.6473 114.622 25.875 115.575 25.875ZM22.425 65.55C23.3777 65.55 24.15 66.3223 24.15 67.275V75.9C24.15 76.8527 23.3777 77.625 22.425 77.625C21.4723 77.625 20.7 76.8527 20.7 75.9V67.275C20.7 66.3223 21.4723 65.55 22.425 65.55ZM22.425 83.6625C23.3777 83.6625 24.15 84.4348 24.15 85.3875V86.25C24.15 87.2027 23.3777 87.975 22.425 87.975C21.4723 87.975 20.7 87.2027 20.7 86.25V85.3875C20.7 84.4348 21.4723 83.6625 22.425 83.6625Z" fill="#000091"/>
<path fill-rule="evenodd" clip-rule="evenodd" d="M79.9005 61.5951C80.8532 61.5951 81.6255 62.3674 81.6255 63.3201L81.6255 113.303C81.6255 114.256 80.8532 115.028 79.9005 115.028C78.9478 115.028 78.1755 114.256 78.1755 113.303L78.1755 63.3201C78.1755 62.3674 78.9478 61.5951 79.9005 61.5951Z" fill="#000091"/>
<path fill-rule="evenodd" clip-rule="evenodd" d="M79.9005 20.7C80.8532 20.7 81.6255 21.4723 81.6255 22.425L81.6255 37.0875C81.6255 38.0402 80.8532 38.8125 79.9005 38.8125C78.9478 38.8125 78.1755 38.0402 78.1755 37.0875L78.1755 22.425C78.1755 21.4723 78.9479 20.7 79.9005 20.7Z" fill="#000091"/>
<path fill-rule="evenodd" clip-rule="evenodd" d="M78.1755 83.7677C78.1755 82.815 78.9478 82.0427 79.9005 82.0427H91.792C92.7447 82.0427 93.517 82.815 93.517 83.7677C93.517 84.7204 92.7447 85.4927 91.792 85.4927H79.9005C78.9478 85.4927 78.1755 84.7204 78.1755 83.7677Z" fill="#000091"/>
<path fill-rule="evenodd" clip-rule="evenodd" d="M101.958 83.7677C101.958 82.815 102.731 82.0427 103.683 82.0427L113.593 82.0427C114.546 82.0427 115.318 82.815 115.318 83.7677C115.318 84.7204 114.546 85.4927 113.593 85.4927L103.683 85.4927C102.731 85.4927 101.958 84.7204 101.958 83.7677Z" fill="#000091"/>
<path fill-rule="evenodd" clip-rule="evenodd" d="M101.959 93.2961C99.4006 92.8243 95.3418 90.6098 93.4622 83.3361C93.2238 82.4137 92.2828 81.8592 91.3604 82.0975C90.438 82.3359 89.8835 83.2769 90.1219 84.1993C92.7669 94.4345 99.5713 97.0436 103.465 96.8419C104.622 96.7819 105.409 95.8134 105.409 94.7851L105.409 83.7677C105.409 82.815 104.636 82.0427 103.684 82.0427C102.731 82.0427 101.959 82.815 101.959 83.7677L101.959 93.2961Z" fill="#000091"/>
<path fill-rule="evenodd" clip-rule="evenodd" d="M54.1379 74.6249L62.5395 83.0962L32.6754 112.715L24.2737 104.243L27.2846 101.257L31.4855 105.493C32.1563 106.169 33.2485 106.174 33.925 105.503C34.6014 104.832 34.6059 103.74 33.935 103.063L29.7342 98.8277L32.6328 95.953L34.1815 97.5145C34.8524 98.191 35.9446 98.1955 36.621 97.5246C37.2975 96.8537 37.302 95.7615 36.6311 95.0851L35.0824 93.5235L37.981 90.6488L42.1818 94.8844C42.8527 95.5609 43.9449 95.5654 44.6213 94.8945C45.2978 94.2236 45.3023 93.1314 44.6314 92.455L40.4306 88.2194L43.3292 85.3446L44.8779 86.9062C45.5488 87.5826 46.641 87.5871 47.3174 86.9162C47.9939 86.2454 47.9984 85.1532 47.3275 84.4767L45.7788 82.9152L48.6774 80.0404L52.8783 84.2761C53.5491 84.9525 54.6413 84.9571 55.3178 84.2862C55.9942 83.6153 55.9987 82.5231 55.3278 81.8467L51.127 77.611L54.1379 74.6249ZM51.7085 72.1753C53.0614 70.8336 55.2458 70.8426 56.5875 72.1955L64.9891 80.6668C66.3308 82.0197 66.3218 84.2041 64.9689 85.5458L35.1048 115.164C33.7519 116.506 31.5675 116.497 30.2258 115.144L21.8242 106.673C20.4824 105.32 20.4915 103.135 21.8443 101.794L51.7085 72.1753Z" fill="#E1000F"/>
<path fill-rule="evenodd" clip-rule="evenodd" d="M106.563 26.433L108.914 24.0472C109.354 23.6848 110.122 23.2707 110.95 23.1976C111.7 23.1314 112.621 23.3245 113.577 24.4322C114.028 24.9543 114.166 25.707 114 26.5952C113.92 27.0267 113.775 27.4309 113.614 27.7532C113.534 27.913 113.456 28.0397 113.391 28.1315C113.33 28.2167 113.294 28.2504 113.295 28.2506L113.241 28.2969L110.878 30.7179L106.563 26.433ZM104.142 28.8903L102.134 30.9283L106.47 35.235L108.469 33.1872L104.142 28.8903ZM104.061 37.7043L99.7119 33.3857L79.3709 54.0274L83.8203 58.4458L104.061 37.7043ZM80.8594 60.3676L77.731 57.261L76.6058 61.7172L80.8594 60.3676ZM116.189 22.1779C114.498 20.219 112.487 19.5985 110.646 19.761C108.914 19.914 107.461 20.7431 106.613 21.475L106.561 21.5204L75.5432 52.9964C75.2846 53.2588 75.1008 53.5854 75.0106 53.9426L72.6541 63.2752C72.257 64.8479 73.741 66.2456 75.2872 65.755L83.8042 63.0528C84.1284 62.95 84.4222 62.7688 84.6597 62.5254L115.617 30.802C116.063 30.395 116.427 29.8413 116.699 29.2986C116.998 28.7014 117.25 27.9908 117.392 27.2273C117.672 25.7255 117.56 23.7671 116.189 22.1779Z" fill="#E1000F"/>
<path fill-rule="evenodd" clip-rule="evenodd" d="M22.77 20.7C21.6268 20.7 20.7 21.6268 20.7 22.77V56.12C20.7 57.9399 22.8797 58.8741 24.1976 57.619L59.2151 24.269C60.5682 22.9803 59.6561 20.7 57.7875 20.7H22.77ZM24.15 52.9V24.15H54.3375L24.15 52.9ZM29.67 27.6C28.5268 27.6 27.6 28.5268 27.6 29.67V40.5671C27.6 42.4113 29.8297 43.3348 31.1337 42.0308L42.0308 31.1337C43.3348 29.8297 42.4113 27.6 40.5671 27.6H29.67ZM31.05 37.2355V31.05H37.2355L31.05 37.2355Z" fill="#E1000F"/>
</svg>

<svg width="138" height="138" fill="none" xmlns="http://www.w3.org/2000/svg"><path fill="#fff" d="M0 0h138v138H0z"/><path fill-rule="evenodd" clip-rule="evenodd" d="M34.5 13.8a1.727 1.727 0 0 1-1.725-1.725c0-.951.774-1.725 1.725-1.725.951 0 1.725.774 1.725 1.725 0 .951-.774 1.725-1.725 1.725ZM13.8 127.65a1.727 1.727 0 0 1-1.725-1.725c0-.951.774-1.725 1.725-1.725.951 0 1.725.774 1.725 1.725 0 .951-.774 1.725-1.725 1.725ZM124.2 41.4a1.727 1.727 0 0 1-1.725-1.725c0-.951.774-1.725 1.725-1.725.951 0 1.725.774 1.725 1.725 0 .951-.774 1.725-1.725 1.725Z" fill="#CACAFB"/><path fill-rule="evenodd" clip-rule="evenodd" d="M78.487 22.425c0-.953.773-1.725 1.726-1.725h27.6a1.725 1.725 0 0 1 0 3.45h-27.6a1.725 1.725 0 0 1-1.725-1.725Zm37.088 3.45c.953 0 1.725.772 1.725 1.725v82.8a6.9 6.9 0 0 1-6.9 6.9H44.85a1.725 1.725 0 1 1 0-3.45h65.55a3.45 3.45 0 0 0 3.45-3.45V27.6c0-.953.772-1.725 1.725-1.725ZM22.425 65.55c.953 0 1.725.772 1.725 1.725V75.9a1.725 1.725 0 1 1-3.45 0v-8.625c0-.953.772-1.725 1.725-1.725Zm0 18.112c.953 0 1.725.773 1.725 1.725v.863a1.725 1.725 0 1 1-3.45 0v-.862c0-.953.772-1.726 1.725-1.726Z" fill="#000091"/><path fill-rule="evenodd" clip-rule="evenodd" d="M79.9 61.595c.953 0 1.725.772 1.725 1.725v49.983a1.725 1.725 0 1 1-3.45 0V63.32c0-.953.773-1.725 1.725-1.725Zm0-40.895c.953 0 1.725.772 1.725 1.725v14.662a1.725 1.725 0 1 1-3.45 0V22.425c0-.953.773-1.725 1.725-1.725Z" fill="#000091"/><path fill-rule="evenodd" clip-rule="evenodd" d="M78.175 83.768c0-.953.773-1.725 1.725-1.725h11.892a1.725 1.725 0 1 1 0 3.45H79.9a1.725 1.725 0 0 1-1.725-1.725Zm23.783 0c0-.953.773-1.725 1.725-1.725h9.91a1.725 1.725 0 1 1 0 3.45h-9.91a1.725 1.725 0 0 1-1.725-1.725Z" fill="#000091"/><path fill-rule="evenodd" clip-rule="evenodd" d="M101.959 93.296c-2.558-.472-6.617-2.686-8.497-9.96a1.725 1.725 0 0 0-3.34.863c2.645 10.236 9.45 12.845 13.343 12.643 1.157-.06 1.944-1.029 1.944-2.057V83.768a1.725 1.725 0 0 0-3.45 0v9.528Z" fill="#000091"/><path fill-rule="evenodd" clip-rule="evenodd" d="m54.138 74.625 8.401 8.471-29.864 29.619-8.401-8.472 3.01-2.986 4.201 4.236a1.725 1.725 0 0 0 2.45-2.43l-4.2-4.235 2.898-2.875 1.548 1.561a1.725 1.725 0 1 0 2.45-2.429l-1.549-1.561 2.899-2.875 4.2 4.235a1.725 1.725 0 1 0 2.45-2.429l-4.2-4.236 2.898-2.874 1.549 1.561a1.725 1.725 0 0 0 2.45-2.43l-1.55-1.56 2.9-2.876 4.2 4.236a1.725 1.725 0 1 0 2.45-2.43l-4.201-4.235 3.01-2.986Zm-2.43-2.45a3.45 3.45 0 0 1 4.88.02l8.401 8.472a3.45 3.45 0 0 1-.02 4.879l-29.864 29.618a3.45 3.45 0 0 1-4.88-.02l-8.4-8.471a3.45 3.45 0 0 1 .02-4.879l29.864-29.619Zm54.855-45.742 2.351-2.386c.44-.362 1.208-.776 2.036-.85.75-.066 1.671.128 2.627 1.235.451.522.589 1.275.423 2.163a4.47 4.47 0 0 1-.386 1.158 2.94 2.94 0 0 1-.223.378c-.061.086-.097.12-.096.12l-.054.046-2.363 2.42-4.315-4.284Zm-2.421 2.457-2.008 2.038 4.336 4.307 1.999-2.048-4.327-4.297Zm-.081 8.814-4.35-4.318-20.34 20.641 4.45 4.419 20.24-20.742ZM80.859 60.368l-3.128-3.107-1.125 4.456 4.253-1.35Zm35.33-38.19c-1.691-1.959-3.702-2.58-5.543-2.417-1.732.153-3.185.982-4.033 1.714l-.052.045-31.018 31.476a2.07 2.07 0 0 0-.532.947l-2.357 9.332c-.397 1.573 1.087 2.97 2.633 2.48l8.517-2.702a2.07 2.07 0 0 0 .856-.528l30.957-31.723c.446-.407.81-.96 1.082-1.503a7.913 7.913 0 0 0 .693-2.072c.28-1.502.168-3.46-1.203-5.05ZM22.77 20.7a2.07 2.07 0 0 0-2.07 2.07v33.35c0 1.82 2.18 2.754 3.498 1.499l35.017-33.35c1.353-1.289.441-3.569-1.428-3.569H22.77Zm1.38 32.2V24.15h30.188L24.15 52.9Zm5.52-25.3a2.07 2.07 0 0 0-2.07 2.07v10.897c0 1.844 2.23 2.768 3.534 1.464L42.03 31.134c1.304-1.304.38-3.534-1.464-3.534H29.67Zm1.38 9.636V31.05h6.186l-6.186 6.186Z" fill="#E1000F"/></svg>
